X:254
T:Miss Monaghan
R:reel
N:See also #552
Z:id:hn-reel-254
M:C|
K:D
D2 (3FED FA~A2|BcBA FABc|dedB ABde|fede fe~e2|
D2 (3FED FA~A2|BcBA FABc|dedB ABdB|AFEG FD~D2:|
|:faab afdf|gefd edBc|dedB ABde|fede fe~e2|
faab afdf|gefd edBc|dedB ABdB|AFEG FD~D2:|
